X: 18426
T: Hunting The Buffalo
R: reel
M: 4/4
K: Amajor
B2|"A"c4 cBAB|cBAG F2E2|c4 cBAB|cBce "D"f2e2|
"A"c4 cBAB|cBAG F2E2|c4 cB A2|"F#m"F3 E F2:|
|:E2|"D"F3 E F2E2|FEFG A2E2|FEFG A2 AB|"A"c2c2(3BcBA2|
"D"F3 E F2E2|FEFG A2 AB|"A"c2c2 (3BcBA2|"F#m"F3 E F2:|

